X: 4
T: Contentment Is Wealth
R: jig
M: 6/8
L: 1/8
K: Edor
S: Paul Cranford http://www.cranfordpub.com/tunes/CapeBreton/BuddysOrder_Contentment.htm
F| GFG Eed | BAB E2 G | FEF DdB | AFD Def |
gfe edB | BAF d2 B | AFD DFA | GEE E2 :|
f | gbe gbe | gbb bag | fad fad | faa afd |
gfe edB | BAF d2 B | AFD DFA | GEE E2 :|


Tune 1662	Setting 15089

